svg/blobs-icons/no-decorations/plastic-flower.svg

<svg xmlns="http://www.w3.org/2000/svg" xmlns:xlink="http://www.w3.org/1999/xlink" preserveAspectRatio="xMidYMid" width="133" height="217" viewBox="0 0 133 217"><defs><style>.cls-3{fill:#0cb04a}.cls-4{fill:#142a3b}.cls-5{fill:#000;opacity:.35}.cls-6{fill:#ff3a2f}.cls-12{fill:#fbb713}.cls-13{fill:#ededed}.cls-15{fill:#fff}.cls-16{fill:#000;opacity:.25}</style></defs><g id="group-75svg"><path d="M56.713 199.463C54.537 199.463 52.773 197.756 52.773 195.651 52.773 193.546 54.537 191.839 56.713 191.839H68.789C70.965 191.839 72.729 193.546 72.729 195.651 72.729 197.756 70.965 199.463 68.789 199.463H56.713z" id="path-1" class="cls-3" fill-rule="evenodd"/><path d="M66.389 216.519s0 0 0 0c-13.508.0-24.11-11.579-22.921-25.032l12.149-83.304s21.543.0 21.543.0 12.149 83.304 12.149 83.304C90.498 204.94 79.896 216.519 66.389 216.519z" id="path-2" class="cls-4" fill-rule="evenodd"/><path d="M77.16 108.183s-21.543.0-21.543.0-4.261 29.218-4.261 29.218C54.855 141.861 60.28 144.737 66.389 144.737 72.497 144.737 77.923 141.861 81.421 137.401L77.16 108.183z" id="path-3" class="cls-5" fill-rule="evenodd"/><path d="M132.774 66.388c0-10.555-8.557-19.111-19.112-19.111C113.226 47.277 112.799 47.313 112.37 47.342 112.693 47.06 113.021 46.783 113.33 46.475 120.793 39.012 120.793 26.911 113.33 19.448c-7.464-7.464-19.564-7.464-27.028.0C85.994 19.757 85.718 20.085 85.435 20.409 85.463 19.978 85.5 19.551 85.5 19.116 85.5 8.561 76.943.005 66.389.005c-10.555.0-19.112 8.556-19.112 19.111C47.277 19.551 47.314 19.978 47.342 20.409 47.06 20.085 46.783 19.757 46.475 19.448c-7.463-7.464-19.564-7.464-27.027.0-7.464 7.463-7.464 19.564.0 27.027C19.756 46.783 20.084 47.06 20.408 47.342 19.979 47.313 19.552 47.277 19.116 47.277 8.56 47.277.004 55.833.004 66.388c0 10.554 8.556 19.11 19.112 19.11C19.552 85.498 19.979 85.462 20.408 85.433 20.084 85.716 19.756 85.991 19.448 86.3c-7.464 7.464-7.464 19.564.0 27.028 7.463 7.462 19.564 7.462 27.027.0C46.783 113.019 47.06 112.691 47.342 112.367 47.314 112.796 47.277 113.224 47.277 113.66c0 10.554 8.557 19.111 19.112 19.111C76.943 132.771 85.5 124.214 85.5 113.66 85.5 113.224 85.463 112.796 85.435 112.367 85.718 112.691 85.994 113.019 86.302 113.328c7.464 7.462 19.564 7.462 27.028.0C120.793 105.864 120.793 93.764 113.33 86.3 113.021 85.991 112.693 85.716 112.37 85.433 112.799 85.462 113.226 85.498 113.662 85.498 124.217 85.498 132.774 76.942 132.774 66.388z" id="path-4" class="cls-6" fill-rule="evenodd"/><path d="M106.149 41.688C105.84 41.995 105.513 42.272 105.189 42.556 105.618 42.525 106.045 42.49 106.481 42.49 109.552 42.49 112.443 43.231 115.013 44.519 120.723 37.027 120.174 26.292 113.33 19.448c-1.993-1.993-4.322-3.437-6.8-4.366 7.062 7.491 6.947 19.279-.381 26.606z" id="path-5" class="cls-5" fill-rule="evenodd"/><path d="M78.319 14.329C78.319 14.764 78.283 15.191 78.254 15.621 78.537 15.298 78.813 14.969 79.121 14.661 80.53 13.251 82.106 12.11 83.784 11.233 81.7 6.642 77.858 3.032 73.112 1.244 76.332 4.665 78.319 9.26 78.319 14.329z" id="path-6" class="cls-5" fill-rule="evenodd"/><path d="M132.773 66.388c0-8.185-5.155-15.148-12.388-17.871C123.606 51.938 125.593 56.532 125.593 61.601c0 10.554-8.557 19.11-19.112 19.11C106.045 80.711 105.618 80.675 105.189 80.646 105.513 80.928 105.84 81.204 106.149 81.513 113.612 88.976 113.612 101.077 106.149 108.541 100.679 114.01 92.721 115.453 85.921 112.905 86.047 113.047 86.167 113.192 86.302 113.328c7.464 7.462 19.564 7.462 27.028.0C120.793 105.864 120.793 93.764 113.33 86.3 113.021 85.991 112.693 85.716 112.37 85.433 112.799 85.461 113.226 85.498 113.662 85.498 124.217 85.498 132.773 76.942 132.773 66.388z" id="path-7" class="cls-5" fill-rule="evenodd"/><path d="M40.096 108.873C40.096 108.437 40.133 108.01 40.162 107.58 39.879 107.904 39.603 108.232 39.294 108.541 33.823 114.01 25.866 115.453 19.065 112.905 19.196 113.043 19.311 113.192 19.448 113.328 25.501 119.38 34.606 120.522 41.812 116.754 40.72 114.35 40.096 111.686 40.096 108.873z" id="path-8" class="cls-5" fill-rule="evenodd"/><path d="M79.121 108.541C78.813 108.232 78.537 107.904 78.254 107.58 78.283 108.01 78.319 108.437 78.319 108.873c0 10.554-8.556 19.11-19.111 19.11C56.838 127.983 54.578 127.533 52.484 126.743 55.97 130.446 60.903 132.771 66.389 132.771 76.943 132.771 85.5 124.214 85.5 113.66 85.5 113.35 85.474 113.047 85.454 112.742 83.149 111.809 80.99 110.409 79.121 108.541z" id="path-9" class="cls-5" fill-rule="evenodd"/><path d="M101.058 66.388c0 19.147-15.522 34.667-34.669 34.667-19.148.0-34.67-15.52-34.67-34.667.0-19.147 15.522-34.669 34.67-34.669 19.147.0 34.669 15.522 34.669 34.669z" id="path-10" class="cls-12" fill-rule="evenodd"/><path d="M41.624 69.979C39.641 69.979 38.032 68.371 38.032 66.387c0-15.635 12.721-28.355 28.357-28.355C68.372 38.032 69.981 39.64 69.981 41.624 69.981 43.607 68.372 45.216 66.389 45.216c-11.673.0-21.172 9.498-21.172 21.171C45.217 68.371 43.609 69.979 41.624 69.979z" id="path-11" class="cls-13" fill-rule="evenodd"/><path d="M76.832 33.327c8.855 6.281 14.652 16.591 14.652 28.274.0 19.147-15.522 34.668-34.67 34.668C53.173 96.269 49.667 95.702 46.371 94.662 52.029 98.675 58.924 101.055 66.389 101.055c19.147.0 34.669-15.52 34.669-34.667.0-15.507-10.183-28.63-24.226-33.061z" id="path-12" class="cls-5" fill-rule="evenodd"/><path d="M73.569 192.284C73.569 196.25 70.355 199.464 66.389 199.464 62.423 199.464 59.208 196.25 59.208 192.284 59.208 188.318 62.423 185.104 66.389 185.104 70.355 185.104 73.569 188.318 73.569 192.284z" id="path-13" class="cls-15" fill-rule="evenodd"/><path d="M66.966 185.162C68.083 186.427 68.782 188.07 68.782 189.89 68.782 193.856 65.567 197.07 61.601 197.07 61.403 197.07 61.217 197.028 61.023 197.012 62.339 198.504 64.243 199.463 66.389 199.463 70.355 199.463 73.569 196.25 73.569 192.283 73.569 188.517 70.657 185.461 66.966 185.162z" id="path-14" class="cls-16" fill-rule="evenodd"/></g></svg>

<svg xmlns="http://www.w3.org/2000/svg" xmlns:xlink="http://www.w3.org/1999/xlink" preserveAspectRatio="xMidYMid" width="133" height="217" viewBox="0 0 133 217">
  <defs>
    <style>

      .cls-3 {
        fill: #0cb04a;
      }

      .cls-4 {
        fill: #142a3b;
      }

      .cls-5 {
        fill: #000000;
        opacity: 0.35;
      }

      .cls-6 {
        fill: #ff3a2f;
      }

      .cls-12 {
        fill: #fbb713;
      }

      .cls-13 {
        fill: #ededed;
      }

      .cls-15 {
        fill: #ffffff;
      }

      .cls-16 {
        fill: #000000;
        opacity: 0.25;
      }
    </style>
  </defs>
  <g id="group-75svg">
    <path d="M56.713,199.463 C54.537,199.463 52.773,197.756 52.773,195.651 C52.773,193.546 54.537,191.839 56.713,191.839 C56.713,191.839 68.789,191.839 68.789,191.839 C70.965,191.839 72.729,193.546 72.729,195.651 C72.729,197.756 70.965,199.463 68.789,199.463 C68.789,199.463 56.713,199.463 56.713,199.463 Z" id="path-1" class="cls-3" fill-rule="evenodd"/>
    <path d="M66.389,216.519 C66.389,216.519 66.389,216.519 66.389,216.519 C52.881,216.519 42.279,204.940 43.468,191.487 C43.468,191.487 55.617,108.183 55.617,108.183 C55.617,108.183 77.160,108.183 77.160,108.183 C77.160,108.183 89.309,191.487 89.309,191.487 C90.498,204.940 79.896,216.519 66.389,216.519 Z" id="path-2" class="cls-4" fill-rule="evenodd"/>
    <path d="M77.160,108.183 C77.160,108.183 55.617,108.183 55.617,108.183 C55.617,108.183 51.356,137.401 51.356,137.401 C54.855,141.861 60.280,144.737 66.389,144.737 C72.497,144.737 77.923,141.861 81.421,137.401 C81.421,137.401 77.160,108.183 77.160,108.183 Z" id="path-3" class="cls-5" fill-rule="evenodd"/>
    <path d="M132.774,66.388 C132.774,55.833 124.217,47.277 113.662,47.277 C113.226,47.277 112.799,47.313 112.370,47.342 C112.693,47.060 113.021,46.783 113.330,46.475 C120.793,39.012 120.793,26.911 113.330,19.448 C105.866,11.984 93.766,11.984 86.302,19.448 C85.994,19.757 85.718,20.085 85.435,20.409 C85.463,19.978 85.500,19.551 85.500,19.116 C85.500,8.561 76.943,0.005 66.389,0.005 C55.834,0.005 47.277,8.561 47.277,19.116 C47.277,19.551 47.314,19.978 47.342,20.409 C47.060,20.085 46.783,19.757 46.475,19.448 C39.012,11.984 26.911,11.984 19.448,19.448 C11.984,26.911 11.984,39.012 19.448,46.475 C19.756,46.783 20.084,47.060 20.408,47.342 C19.979,47.313 19.552,47.277 19.116,47.277 C8.560,47.277 0.004,55.833 0.004,66.388 C0.004,76.942 8.560,85.498 19.116,85.498 C19.552,85.498 19.979,85.462 20.408,85.433 C20.084,85.716 19.756,85.991 19.448,86.300 C11.984,93.764 11.984,105.864 19.448,113.328 C26.911,120.790 39.012,120.790 46.475,113.328 C46.783,113.019 47.060,112.691 47.342,112.367 C47.314,112.796 47.277,113.224 47.277,113.660 C47.277,124.214 55.834,132.771 66.389,132.771 C76.943,132.771 85.500,124.214 85.500,113.660 C85.500,113.224 85.463,112.796 85.435,112.367 C85.718,112.691 85.994,113.019 86.302,113.328 C93.766,120.790 105.866,120.790 113.330,113.328 C120.793,105.864 120.793,93.764 113.330,86.300 C113.021,85.991 112.693,85.716 112.370,85.433 C112.799,85.462 113.226,85.498 113.662,85.498 C124.217,85.498 132.774,76.942 132.774,66.388 Z" id="path-4" class="cls-6" fill-rule="evenodd"/>
    <path d="M106.149,41.688 C105.840,41.995 105.513,42.272 105.189,42.556 C105.618,42.525 106.045,42.490 106.481,42.490 C109.552,42.490 112.443,43.231 115.013,44.519 C120.723,37.027 120.174,26.292 113.330,19.448 C111.337,17.455 109.008,16.011 106.530,15.082 C113.592,22.573 113.477,34.361 106.149,41.688 Z" id="path-5" class="cls-5" fill-rule="evenodd"/>
    <path d="M78.319,14.329 C78.319,14.764 78.283,15.191 78.254,15.621 C78.537,15.298 78.813,14.969 79.121,14.661 C80.530,13.251 82.106,12.110 83.784,11.233 C81.700,6.642 77.858,3.032 73.112,1.244 C76.332,4.665 78.319,9.260 78.319,14.329 Z" id="path-6" class="cls-5" fill-rule="evenodd"/>
    <path d="M132.773,66.388 C132.773,58.203 127.618,51.240 120.385,48.517 C123.606,51.938 125.593,56.532 125.593,61.601 C125.593,72.155 117.036,80.711 106.481,80.711 C106.045,80.711 105.618,80.675 105.189,80.646 C105.513,80.928 105.840,81.204 106.149,81.513 C113.612,88.976 113.612,101.077 106.149,108.541 C100.679,114.010 92.721,115.453 85.921,112.905 C86.047,113.047 86.167,113.192 86.302,113.328 C93.766,120.790 105.866,120.790 113.330,113.328 C120.793,105.864 120.793,93.764 113.330,86.300 C113.021,85.991 112.693,85.716 112.370,85.433 C112.799,85.461 113.226,85.498 113.662,85.498 C124.217,85.498 132.773,76.942 132.773,66.388 Z" id="path-7" class="cls-5" fill-rule="evenodd"/>
    <path d="M40.096,108.873 C40.096,108.437 40.133,108.010 40.162,107.580 C39.879,107.904 39.603,108.232 39.294,108.541 C33.823,114.010 25.866,115.453 19.065,112.905 C19.196,113.043 19.311,113.192 19.448,113.328 C25.501,119.380 34.606,120.522 41.812,116.754 C40.720,114.350 40.096,111.686 40.096,108.873 Z" id="path-8" class="cls-5" fill-rule="evenodd"/>
    <path d="M79.121,108.541 C78.813,108.232 78.537,107.904 78.254,107.580 C78.283,108.010 78.319,108.437 78.319,108.873 C78.319,119.427 69.763,127.983 59.208,127.983 C56.838,127.983 54.578,127.533 52.484,126.743 C55.970,130.446 60.903,132.771 66.389,132.771 C76.943,132.771 85.500,124.214 85.500,113.660 C85.500,113.350 85.474,113.047 85.454,112.742 C83.149,111.809 80.990,110.409 79.121,108.541 Z" id="path-9" class="cls-5" fill-rule="evenodd"/>
    <path d="M101.058,66.388 C101.058,85.535 85.536,101.055 66.389,101.055 C47.241,101.055 31.719,85.535 31.719,66.388 C31.719,47.241 47.241,31.719 66.389,31.719 C85.536,31.719 101.058,47.241 101.058,66.388 Z" id="path-10" class="cls-12" fill-rule="evenodd"/>
    <path d="M41.624,69.979 C39.641,69.979 38.032,68.371 38.032,66.387 C38.032,50.752 50.753,38.032 66.389,38.032 C68.372,38.032 69.981,39.640 69.981,41.624 C69.981,43.607 68.372,45.216 66.389,45.216 C54.716,45.216 45.217,54.714 45.217,66.387 C45.217,68.371 43.609,69.979 41.624,69.979 Z" id="path-11" class="cls-13" fill-rule="evenodd"/>
    <path d="M76.832,33.327 C85.687,39.608 91.484,49.918 91.484,61.601 C91.484,80.748 75.962,96.269 56.814,96.269 C53.173,96.269 49.667,95.702 46.371,94.662 C52.029,98.675 58.924,101.055 66.389,101.055 C85.536,101.055 101.058,85.535 101.058,66.388 C101.058,50.881 90.875,37.758 76.832,33.327 Z" id="path-12" class="cls-5" fill-rule="evenodd"/>
    <path d="M73.569,192.284 C73.569,196.250 70.355,199.464 66.389,199.464 C62.423,199.464 59.208,196.250 59.208,192.284 C59.208,188.318 62.423,185.104 66.389,185.104 C70.355,185.104 73.569,188.318 73.569,192.284 Z" id="path-13" class="cls-15" fill-rule="evenodd"/>
    <path d="M66.966,185.162 C68.083,186.427 68.782,188.070 68.782,189.890 C68.782,193.856 65.567,197.070 61.601,197.070 C61.403,197.070 61.217,197.028 61.023,197.012 C62.339,198.504 64.243,199.463 66.389,199.463 C70.355,199.463 73.569,196.250 73.569,192.283 C73.569,188.517 70.657,185.461 66.966,185.162 Z" id="path-14" class="cls-16" fill-rule="evenodd"/>
  </g>
</svg>
